48x48/actions/vm_clone_wizard.svg

<svg xmlns="http://www.w3.org/2000/svg" width="48" height="48" version="1">
 <rect style="opacity:0.2" width="28" height="28" x="5" y="4" rx="2.211" ry="2.211" transform="matrix(0,1,1,0,0,0)"/>
 <rect style="opacity:0.2" width="28" height="28" x="17" y="16" rx="2.211" ry="2.211" transform="matrix(0,1,1,0,0,0)"/>
 <rect style="fill:#e95d1c" width="28" height="28" x="4" y="4" rx="2.211" ry="2.211" transform="matrix(0,1,1,0,0,0)"/>
 <path style="opacity:0.5;fill:#f4f4f7" d="m 9,9 v 8 h 4 v -4 h 4 V 9 h -4 z m 10,0 v 4 h 4 v 4 h 4 V 9 H 23 Z M 9,19 v 8 h 4 4 v -4 h -4 v -4 z m 14,0 v 4 h -4 v 4 h 4 4 v -8 z"/>
 <rect style="fill:#ffa507" width="28" height="28" x="16" y="16" rx="2.211" ry="2.211" transform="matrix(0,1,1,0,0,0)"/>
 <path style="opacity:0.5;fill:#f4f4f7" d="M 21 21 L 21 29 L 25 29 L 25 25 L 29 25 L 29 21 L 25 21 L 21 21 z M 31 21 L 31 25 L 35 25 L 35 29 L 39 29 L 39 21 L 35 21 L 31 21 z M 21 31 L 21 39 L 25 39 L 29 39 L 29 35 L 25 35 L 25 31 L 21 31 z M 35 31 L 35 35 L 31 35 L 31 39 L 35 39 L 39 39 L 39 31 L 35 31 z"/>
 <path style="fill:#f4f4f7;opacity:0.1" d="M 6.2109375 4 C 4.986306 4 4 4.986306 4 6.2109375 L 4 7.2109375 C 4 5.986306 4.986306 5 6.2109375 5 L 29.789062 5 C 31.013694 5 32 5.986306 32 7.2109375 L 32 6.2109375 C 32 4.986306 31.013694 4 29.789062 4 L 6.2109375 4 z"/>
 <path style="fill:#f4f4f7;opacity:0.2" d="M 18.210938 16 C 16.986306 16 16 16.986306 16 18.210938 L 16 19.210938 C 16 17.986306 16.986306 17 18.210938 17 L 41.789062 17 C 43.013694 17 44 17.986306 44 19.210938 L 44 18.210938 C 44 16.986306 43.013694 16 41.789062 16 L 18.210938 16 z"/>
</svg>

<svg xmlns="http://www.w3.org/2000/svg" width="48" height="48" version="1"><rect style="opacity:.2" width="28" height="28" x="5" y="4" rx="2.211" ry="2.211" transform="matrix(0 1 1 0 0 0)"/><rect style="opacity:.2" width="28" height="28" x="17" y="16" rx="2.211" ry="2.211" transform="matrix(0 1 1 0 0 0)"/><rect style="fill:#e95d1c" width="28" height="28" x="4" y="4" rx="2.211" ry="2.211" transform="matrix(0 1 1 0 0 0)"/><path style="opacity:.5;fill:#f4f4f7" d="M9 9v8h4v-4h4V9h-4zm10 0v4h4v4h4V9h-4zM9 19v8h8v-4h-4v-4zm14 0v4h-4v4h8v-8z"/><rect style="fill:#ffa507" width="28" height="28" x="16" y="16" rx="2.211" ry="2.211" transform="matrix(0 1 1 0 0 0)"/><path style="opacity:.5;fill:#f4f4f7" d="M21 21v8h4v-4h4v-4h-8zm10 0v4h4v4h4v-8h-8zM21 31v8h8v-4h-4v-4h-4zm14 0v4h-4v4h8v-8h-4z"/><path style="fill:#f4f4f7;opacity:.1" d="M6.21 4C4.987 4 4 4.986 4 6.21v1C4 5.987 4.986 5 6.21 5h23.58C31.013 5 32 5.986 32 7.21v-1C32 4.987 31.014 4 29.79 4H6.21z"/><path style="fill:#f4f4f7;opacity:.2" d="M18.21 16c-1.224 0-2.21.986-2.21 2.21v1c0-1.224.986-2.21 2.21-2.21h23.58c1.224 0 2.21.986 2.21 2.21v-1c0-1.224-.986-2.21-2.21-2.21H18.21z"/></svg>
